austria/municipalities/20320.svg

<svg xmlns="http://www.w3.org/2000/svg" width="850" height="850" style="shape-rendering:geometricPrecision;text-rendering:geometricPrecision;image-rendering:optimizeQuality;fill-rule:evenodd;clip-rule:evenodd"><path style="opacity:1" fill="#c8c7c7" d="M837.5 17.5v-6h-826v4c-.951-1.419-1.284-3.085-1-5h828c.302 2.56-.032 4.893-1 7z"/><path style="opacity:1" fill="#272323" d="M837.5 17.5a61428.695 61428.695 0 0 1-33.5 476C785.884 635.854 713.051 739.02 585.5 803c-101.823 45.101-204.489 47.101-308 6C169.696 761.862 97.529 682.362 61 570.5a436.225 436.225 0 0 1-15-70 46084.756 46084.756 0 0 1-34.5-485v-4h826v6z"/><path style="opacity:1" fill="#124262" d="M424.5 29.5v-1h395c.295 2.235-.039 4.235-1 6v-5h-394z"/><path style="opacity:1" fill="#fcb713" d="M424.5 28.5v792c-108.745-2.136-199.578-43.136-272.5-123-52.14-61.321-82.14-132.321-90-213a733538.315 733538.315 0 0 0-31.5-456h394z"/><path style="opacity:1" fill="#0065a5" d="M424.5 29.5h394v5c-9.59 135.987-19.09 271.987-28.5 408-.946 66.748-16.612 129.748-47 189-51.153 90.452-126.986 149.619-227.5 177.5a395.65 395.65 0 0 1-91 11.5v-791z"/><path style="opacity:1" fill="#231f20" d="M169.5 234.5a3355.918 3355.918 0 0 1 49 48.5l-32 32a3349.684 3349.684 0 0 0 50 47.5c15.667-15 31-30.333 46-46a1377.608 1377.608 0 0 1-31.5-31c-.667-1-.667-2 0-3l46.5-46.5c.667-.667 1.333-.667 2 0l33.5 33.5c11.098-11.175 22.765-11.842 35-2 6.861 11.731 5.361 22.398-4.5 32a395.674 395.674 0 0 0 16.5 17 1995.396 1995.396 0 0 1 11.5 62 2084.251 2084.251 0 0 0-61-13.5 667.23 667.23 0 0 0-22-21.5 1433.501 1433.501 0 0 0-45 45 13289.112 13289.112 0 0 1 98.5 96c5.295 9.394 4.129 17.894-3.5 25.5-8.607 4.973-16.94 4.639-25-1a4265.787 4265.787 0 0 0-97-93.5 4011.676 4011.676 0 0 0-92 92.5c-13.301 7.254-23.134 4.088-29.5-9.5-1.649-7.082-.315-13.415 4-19a3841.546 3841.546 0 0 0 90.5-90l-49-48a1248.51 1248.51 0 0 0-30 29.5c-.667.667-1.333.667-2 0a3159.296 3159.296 0 0 1-47-47.5l88-89zM558.5 240.5h107v83h83v107h-83v83h-107v-83h-83v-107h83v-83z"/><path style="opacity:1" fill="#0e4d77" d="M558.5 240.5a2916.974 2916.974 0 0 1 108-1v83h83c.332 36.171-.002 72.171-1 108v-107h-83v-83h-107z"/><path style="opacity:1" fill="#838081" d="M660.5 328.5a1681.8 1681.8 0 0 1-1-82h-95a1681.8 1681.8 0 0 1-1 82v-83h97v83z"/><path style="opacity:1" fill="#fefefe" d="M660.5 328.5h82v96h-83v83h-95v-83h-83v-96h82a1681.8 1681.8 0 0 0 1-82h95a1681.8 1681.8 0 0 0 1 82z"/><path style="opacity:1" fill="#124262" d="M558.5 240.5v83h-83a1681.8 1681.8 0 0 1 82-1 1681.8 1681.8 0 0 1 1-82z"/><path style="opacity:1" fill="#6f6c6d" d="M481.5 328.5v96h83v83h95a2304.214 2304.214 0 0 1-96 1v-83h-83a2352.52 2352.52 0 0 1 1-97z"/><path style="opacity:1" fill="#5a5758" d="M742.5 424.5a1681.8 1681.8 0 0 1-82 1 1681.8 1681.8 0 0 1-1 82v-83h83z"/></svg>

<?xml version="1.0" encoding="UTF-8"?>
<!DOCTYPE svg PUBLIC "-//W3C//DTD SVG 1.1//EN" "http://www.w3.org/Graphics/SVG/1.1/DTD/svg11.dtd">
<svg xmlns="http://www.w3.org/2000/svg" version="1.1" width="850px" height="850px" style="shape-rendering:geometricPrecision; text-rendering:geometricPrecision; image-rendering:optimizeQuality; fill-rule:evenodd; clip-rule:evenodd" xmlns:xlink="http://www.w3.org/1999/xlink">
<g><path style="opacity:1" fill="#c8c7c7" d="M 837.5,17.5 C 837.5,15.5 837.5,13.5 837.5,11.5C 562.167,11.5 286.833,11.5 11.5,11.5C 11.5,12.8333 11.5,14.1667 11.5,15.5C 10.5489,14.0813 10.2155,12.4147 10.5,10.5C 286.5,10.5 562.5,10.5 838.5,10.5C 838.802,13.0593 838.468,15.3926 837.5,17.5 Z"/></g>
<g><path style="opacity:1" fill="#272323" d="M 837.5,17.5 C 826.95,176.207 815.783,334.873 804,493.5C 785.884,635.854 713.051,739.02 585.5,803C 483.677,848.101 381.011,850.101 277.5,809C 169.696,761.862 97.5288,682.362 61,570.5C 54.0829,547.581 49.0829,524.248 46,500.5C 33.6471,338.893 22.1471,177.227 11.5,15.5C 11.5,14.1667 11.5,12.8333 11.5,11.5C 286.833,11.5 562.167,11.5 837.5,11.5C 837.5,13.5 837.5,15.5 837.5,17.5 Z"/></g>
<g><path style="opacity:1" fill="#124262" d="M 424.5,29.5 C 424.5,29.1667 424.5,28.8333 424.5,28.5C 556.167,28.5 687.833,28.5 819.5,28.5C 819.795,30.7354 819.461,32.7354 818.5,34.5C 818.5,32.8333 818.5,31.1667 818.5,29.5C 687.167,29.5 555.833,29.5 424.5,29.5 Z"/></g>
<g><path style="opacity:1" fill="#fcb713" d="M 424.5,28.5 C 424.5,28.8333 424.5,29.1667 424.5,29.5C 424.5,293.167 424.5,556.833 424.5,820.5C 315.755,818.364 224.922,777.364 152,697.5C 99.8596,636.179 69.8596,565.179 62,484.5C 51.5471,332.493 41.0471,180.493 30.5,28.5C 161.833,28.5 293.167,28.5 424.5,28.5 Z"/></g>
<g><path style="opacity:1" fill="#0065a5" d="M 424.5,29.5 C 555.833,29.5 687.167,29.5 818.5,29.5C 818.5,31.1667 818.5,32.8333 818.5,34.5C 808.91,170.487 799.41,306.487 790,442.5C 789.054,509.248 773.388,572.248 743,631.5C 691.847,721.952 616.014,781.119 515.5,809C 485.632,816.359 455.299,820.192 424.5,820.5C 424.5,556.833 424.5,293.167 424.5,29.5 Z"/></g>
<g><path style="opacity:1" fill="#231f20" d="M 169.5,234.5 C 185.965,250.465 202.299,266.632 218.5,283C 207.833,293.667 197.167,304.333 186.5,315C 203.015,331.016 219.682,346.849 236.5,362.5C 252.167,347.5 267.5,332.167 282.5,316.5C 271.847,306.348 261.347,296.014 251,285.5C 250.333,284.5 250.333,283.5 251,282.5C 266.5,267 282,251.5 297.5,236C 298.167,235.333 298.833,235.333 299.5,236C 310.667,247.167 321.833,258.333 333,269.5C 344.098,258.325 355.765,257.658 368,267.5C 374.861,279.231 373.361,289.898 363.5,299.5C 368.818,305.319 374.318,310.985 380,316.5C 384.193,337.284 388.026,357.95 391.5,378.5C 371.26,373.701 350.927,369.201 330.5,365C 323.319,357.652 315.986,350.485 308.5,343.5C 293.167,358.167 278.167,373.167 263.5,388.5C 296.459,420.291 329.292,452.291 362,484.5C 367.295,493.894 366.129,502.394 358.5,510C 349.893,514.973 341.56,514.639 333.5,509C 301.622,477.287 269.289,446.121 236.5,415.5C 205.319,445.848 174.652,476.681 144.5,508C 131.199,515.254 121.366,512.088 115,498.5C 113.351,491.418 114.685,485.085 119,479.5C 149.652,450.014 179.819,420.014 209.5,389.5C 193.193,373.527 176.86,357.527 160.5,341.5C 150.347,351.152 140.347,360.986 130.5,371C 129.833,371.667 129.167,371.667 128.5,371C 112.653,355.319 96.986,339.486 81.5,323.5C 110.854,293.812 140.188,264.146 169.5,234.5 Z"/></g>
<g><path style="opacity:1" fill="#231f20" d="M 558.5,240.5 C 594.167,240.5 629.833,240.5 665.5,240.5C 665.5,268.167 665.5,295.833 665.5,323.5C 693.167,323.5 720.833,323.5 748.5,323.5C 748.5,359.167 748.5,394.833 748.5,430.5C 720.833,430.5 693.167,430.5 665.5,430.5C 665.5,458.167 665.5,485.833 665.5,513.5C 629.833,513.5 594.167,513.5 558.5,513.5C 558.5,485.833 558.5,458.167 558.5,430.5C 530.833,430.5 503.167,430.5 475.5,430.5C 475.5,394.833 475.5,359.167 475.5,323.5C 503.167,323.5 530.833,323.5 558.5,323.5C 558.5,295.833 558.5,268.167 558.5,240.5 Z"/></g>
<g><path style="opacity:1" fill="#0e4d77" d="M 558.5,240.5 C 594.329,239.502 630.329,239.168 666.5,239.5C 666.5,267.167 666.5,294.833 666.5,322.5C 694.167,322.5 721.833,322.5 749.5,322.5C 749.832,358.671 749.498,394.671 748.5,430.5C 748.5,394.833 748.5,359.167 748.5,323.5C 720.833,323.5 693.167,323.5 665.5,323.5C 665.5,295.833 665.5,268.167 665.5,240.5C 629.833,240.5 594.167,240.5 558.5,240.5 Z"/></g>
<g><path style="opacity:1" fill="#838081" d="M 660.5,328.5 C 659.502,301.338 659.169,274.005 659.5,246.5C 627.833,246.5 596.167,246.5 564.5,246.5C 564.831,274.005 564.498,301.338 563.5,328.5C 563.5,300.833 563.5,273.167 563.5,245.5C 595.833,245.5 628.167,245.5 660.5,245.5C 660.5,273.167 660.5,300.833 660.5,328.5 Z"/></g>
<g><path style="opacity:1" fill="#fefefe" d="M 660.5,328.5 C 687.833,328.5 715.167,328.5 742.5,328.5C 742.5,360.5 742.5,392.5 742.5,424.5C 714.833,424.5 687.167,424.5 659.5,424.5C 659.5,452.167 659.5,479.833 659.5,507.5C 627.833,507.5 596.167,507.5 564.5,507.5C 564.5,479.833 564.5,452.167 564.5,424.5C 536.833,424.5 509.167,424.5 481.5,424.5C 481.5,392.5 481.5,360.5 481.5,328.5C 508.833,328.5 536.167,328.5 563.5,328.5C 564.498,301.338 564.831,274.005 564.5,246.5C 596.167,246.5 627.833,246.5 659.5,246.5C 659.169,274.005 659.502,301.338 660.5,328.5 Z"/></g>
<g><path style="opacity:1" fill="#124262" d="M 558.5,240.5 C 558.5,268.167 558.5,295.833 558.5,323.5C 530.833,323.5 503.167,323.5 475.5,323.5C 502.662,322.502 529.995,322.169 557.5,322.5C 557.169,294.995 557.502,267.662 558.5,240.5 Z"/></g>
<g><path style="opacity:1" fill="#6f6c6d" d="M 481.5,328.5 C 481.5,360.5 481.5,392.5 481.5,424.5C 509.167,424.5 536.833,424.5 564.5,424.5C 564.5,452.167 564.5,479.833 564.5,507.5C 596.167,507.5 627.833,507.5 659.5,507.5C 627.671,508.498 595.671,508.832 563.5,508.5C 563.5,480.833 563.5,453.167 563.5,425.5C 535.833,425.5 508.167,425.5 480.5,425.5C 480.168,392.996 480.502,360.662 481.5,328.5 Z"/></g>
<g><path style="opacity:1" fill="#5a5758" d="M 742.5,424.5 C 715.338,425.498 688.005,425.831 660.5,425.5C 660.831,453.005 660.498,480.338 659.5,507.5C 659.5,479.833 659.5,452.167 659.5,424.5C 687.167,424.5 714.833,424.5 742.5,424.5 Z"/></g>
</svg>
